Yaru++/actions/16/package-installed-updated.svg

<svg height="16" width="16" xmlns="http://www.w3.org/2000/svg">
  <path d="m5.3261719 0c-1.67759.0195-2.9064963-.04015813-3.9101563.51367188-.50182995.27685999-.89762746.74519812-1.11718748 1.33007812-.21956.58488-.29882812 1.27944-.29882812 2.15625v8c0 .87681.07924813 1.57137.29882812 2.15625.21956002.58488.61535753 1.053218 1.11718748 1.330078 1.00366.55376 2.2325663.494242 3.9101563.513672h.0039062 5.3398439.003906c1.67759-.0195 2.904543.04016 3.908203-.513672.50183-.27686.897628-.745198 1.117188-1.330078.219982-.58488.300781-1.27944.300781-2.15625v-8c0-.87681-.079248-1.57136-.298828-2.15625-.21955-.58488-.615358-1.05319813-1.117188-1.33007812-1.00366-.55379-2.232556-.49431188-3.910156-.51367188h-.003906-2.0039064-3.3359375zm7.8066401 2.7714844c.673476.1265709 1.135165 1.1176894.638672 1.6582031l-6.9999996 8.0000005-.6875.8125-.78125-.75-3-3.0000005c-.37638-.37633-.37635-1.06114 0-1.4375.37636-.37635 1.06117-.37638 1.4375 0l2.25 2.2500005 6.2812496-7.1875005c.14191-.17322.34362-.29645.5625-.34375.102709-.0210687.202618-.0200347.298828-.0019531z" fill="#53992c"/>
</svg>

<svg xmlns="http://www.w3.org/2000/svg" width="16" height="16" version="1.1">
 <g transform="translate(-212.00006,-280)">
  <path style="fill:#53992c" d="M 5.3261719 0 C 3.6485819 0.0195 2.4196756 -0.040158135 1.4160156 0.51367188 C 0.91418565 0.79053187 0.51838814 1.25887 0.29882812 1.84375 C 0.079268125 2.42863 -3.7007434e-17 3.12319 0 4 L 0 12 C 0 12.87681 0.079248125 13.57137 0.29882812 14.15625 C 0.51838814 14.74113 0.91418565 15.209468 1.4160156 15.486328 C 2.4196756 16.040088 3.6485819 15.98057 5.3261719 16 L 5.3300781 16 L 10.669922 16 L 10.673828 16 C 12.351418 15.9805 13.578371 16.04016 14.582031 15.486328 C 15.083861 15.209468 15.479659 14.74113 15.699219 14.15625 C 15.919201 13.57137 16 12.87681 16 12 L 16 4 C 16 3.12319 15.920752 2.42864 15.701172 1.84375 C 15.481622 1.25887 15.085814 0.79055187 14.583984 0.51367188 C 13.580324 -0.040118125 12.351428 0.01936 10.673828 0 L 10.669922 0 L 8.6660156 0 L 5.3300781 0 L 5.3261719 0 z M 13.132812 2.7714844 C 13.806288 2.8980553 14.267977 3.8891738 13.771484 4.4296875 L 6.7714844 12.429688 L 6.0839844 13.242188 L 5.3027344 12.492188 L 2.3027344 9.4921875 C 1.9263544 9.1158575 1.9263844 8.4310475 2.3027344 8.0546875 C 2.6790944 7.6783375 3.3639044 7.6783075 3.7402344 8.0546875 L 5.9902344 10.304688 L 12.271484 3.1171875 C 12.413394 2.9439675 12.615104 2.8207375 12.833984 2.7734375 C 12.936693 2.7523688 13.036602 2.7534028 13.132812 2.7714844 z" transform="translate(212.00006,280)"/>
 </g>
</svg>
